X: 458
T: Eine Melodie	 op. 74
C: Fryderyk Chopin
%%abc-version 2.0
%%abcx-abcm2ps-target-version 5.9.1 (29 Sep 2008)
%%abc-creator hum2abc beta
%%abcx-conversion-date 2021/10/03 11:23:43
%%abc-edited-by Jędrzej Mróz
%%abcx-initial-encoding-date 2020-01-29
%%humdrum-veritas 390928311
%%humdrum-veritas-data 42417090
%%linebreak <none>
%%barnumbers 0
L: 1/4
M: C
N: Derived from 074-1c-LW-009.krn
P: 17 | POLISH SONGS | BY | WITWICKI, ZALESKI, MICKIEWICZ, ETC, | FOR | A SOPRANO OR TENOR VOICE | WITH ACCOMPANIMENT FOR THE | Pianoforte
Q: "ANDANTE. M. M. [quarter] = 92."
V: 1 clef=treble
V: 2 clef=treble
V: 3 clef=bass
K: G
[V:1] z4 | 
[V:2] B,/D/G/[F/A,/] [A/C/][G/B,/][c/E/][B/D/] & B,>xxx | 
[V:3] [D,4G,,4] | 
[V:1] z4 | 
[V:2] [A2A,2]z2 & F3=F | 
[V:3] [D,2D,,2]z2 | 
[V:1] z4 | 
[V:2] A,/C/=F/[E/G,/] [G/_B,/][F/A,/][_B/D/][A/C/] & A,>xxx | 
[V:3] [C,4=F,,4] | 
[V:1] z4 | 
[V:2] [G3E3G,3][^FEA,] | 
[V:3] [C,4C,,4] | 
[V:1] c2B^A | 
[V:2] [F^DA,]zz2 | 
[V:3] [B,,B,,,]zz2 | 
[V:1] B3F | 
[V:2] z4 | 
[V:3] z4 | 
[V:1] GAB^c | 
[V:2] [G4E4] | 
[V:3] [B,,4B,,,4] | 
[V:1] !trill!^d3^c/d/ | 
[V:2] [F2A,2]z2 | 
[V:3] [B,,2B,,,2]z2 | 
[V:1] e2=d3/=c/ | 
[V:2] [E2G,2]z2 | 
[V:3] [C,2C,,2]z2 | 
[V:1] BcGA | 
[V:2] z2zE | 
[V:3] z2z[F,C,] | 
[V:1] B^A=A^G | 
[V:2] [^GE]zz2 | 
[V:3] [B,B,,]zz2 | 
[V:1] ^G3F | 
[V:2] [^DB,A,]zz2 | 
[V:3] B,,zz2 | 
[V:1] Ezz2 | 
[V:2] (3:2:6[B,^G,] [B,G,] [B,G,] [B,G,] [B,G,] [B,G,] | 
[V:3] E,,2B,,E,, | 
[V:1] z4 | 
[V:2] (3:2:6[B,^G,] [B,G,] [B,G,] [B,G,] [B,G,] [B,G,] | 
[V:3] B,,2E,,B,, | 
[V:1] z2z^G | 
[V:2] (3:2:6[B,^G,] [B,G,] [B,G,] [B,G,] [B,G,] [B,G,] | 
[V:3] ^D,,2B,,D,, | 
[V:1] ^G3^A | 
[V:2] (3:2:6[B,^G,] [B,G,] [B,G,] [B,G,] [B,G,] [B,G,][K:clef=treble] | 
[V:3] B,,2=D,,D, | 
[V:1] =c3_d | 
[V:2] (3:2:6[_EC_A,] [ECA,] [ECA,] [ECA,] [ECA,] [ECA,] | 
[V:3] _E,2E,_E,, | 
[V:1] =f_e_d_B | 
[V:2] (3:2:6[_E_DG,] [EDG,] [EDG,] [EDG,] [EDG,] [EDG,] | 
[V:3] _E,2_E,,E, | 
[V:1] _B3c | 
[V:2] (3:2:6[G_D] [GD] [GD] [GD] [GD] [GD] | 
[V:3] _A,,2_E,A,, | 
[V:1] _AGAG | 
[V:2] (3:2:6[_AC] [AC] [AC] [AC] [AC] [AC] | 
[V:3] _A,,2_E,A,, | 
[V:1] =F2G_A | 
[V:2] (3:2:6[=F_D_A,] [FDA,] [FDA,] [FDA,] [FDA,] [FDA,] | 
[V:3] _D,,2_A,,D,, | 
[V:1] _B2_AB | 
[V:2] (3:2:6[_F_D_A,] [FDA,] [FDA,] [FDA,] [FDA,] [FDA,] | 
[V:3] _A,,2_D,,A,, | 
[V:1] !accent!c3_B/_A/ | 
[V:2] (3:2:6[=EC_A,] [ECG,] [ECG,] [ECG,] [ECG,] [ECG,] | 
[V:3] C,,2C,C,, | 
[V:1] G2z2 | 
[V:2] (3:2:6[ECG,] [ECG,] [ECG,] [ECG,] [ECG,] [ECG,] | 
[V:3] C,2C,,C, | 
[V:1] G2^FE | 
[V:2] [EB,G,]zz2 | 
[V:3] [B,,B,,,]zz2 | 
[V:1] B3A | 
[V:2] z4 | 
[V:3] z4 | 
[V:1] AGFE | 
[V:2] z4 | 
[V:3] z4 | 
[V:1] F2Az | 
[V:2] [ECF,]zz2 | 
[V:3] [A,,A,,,]zz2 | 
[V:1] G2FE | 
[V:2] z4 | 
[V:3] z4 | 
[V:1] !accent!B3A | 
[V:2] [E2B,2G,2]z2 | 
[V:3] [B,,2B,,,2]z2 | 
[V:1] AGFE | 
[V:2] z4 | 
[V:3] z4 | 
[V:1] e2E!fermata!z | 
[V:2] [G3E3^A,3]!fermata!z | 
[V:3] [^C,3^C,,3]!fermata!z | 
[V:1] B2cB | 
[V:2] [G4E4B,4G,4] | 
[V:3] [B,,4B,,,4] | 
[V:1] gfec | 
[V:2] z4 | 
[V:3] z4 | 
[V:1] BFGE | 
[V:2] z4 | 
[V:3] z4 | 
[V:1] ^DcBD | 
[V:2] [^D2A,2]z2 | 
[V:3] [B,,2B,,,2]z2 | 
[V:1] z4 | 
[V:2] [E2C2G,2]z2 | 
[V:3] [_B,,2_B,,,2]z2 | 
[V:1] EdcE | 
[V:2] z4 | 
[V:3] z4 | 
[V:1] z4 | 
[V:2] [=F4C4=F,4] | 
[V:3] [_A,,4_A,,,4] | 
[V:1] z4 | 
[V:2] [=F4_A,4] & _D2=D2 | 
[V:3] [_D,2_D,,2][C,2C,,2] | 
[V:1] ^D2c2 | 
[V:2] [^F2^D2=A,2]z2 | 
[V:3] [B,,2B,,,2]z2 | 
[V:1] B2^D2 | 
[V:2] z4 | 
[V:3] z4 | 
[V:1] F2^EF | 
[V:2] z4 | 
[V:3] z4 | 
[V:1] GFAG | 
[V:2] z4 | 
[V:3] z4 | 
[V:1] Ezz2 | 
[V:2] G,/B,/[E/G,/][^D/F,/] [F/A,/][E/G,/][A/C/][G/B,/] | 
[V:3] [B,,4E,,4] | 
[V:1] z4 | 
[V:2] [F4^D4B,4A,4] | 
[V:3] [B,,4B,,,4] | 
[V:1] z4 |]  
[V:2] [E4B,4G,4] |]  
[V:3] [B,,4E,,4] |]
